assets/logo.svg

<svg height="257" viewBox="0 0 257 257" width="257" xmlns="http://www.w3.org/2000/svg"><g fill="none" fill-rule="evenodd"><circle cx="125.5" cy="125.5" fill="#337ab7" r="125.5" transform="translate(3 3)"/><path d="m207.635041 95.4872391c-6.824921-1.9670697-13.893589 2.2129535-15.599819 9.0976979-.487494 1.721186-.487494 3.688255-.243747 5.409441l-36.562076 27.293092c-.243747 0-.487494-.245883-.974988-.245883-2.681219-.737651-5.606185-.491768-8.043657.491767l-32.174627-21.88365c.243748-5.901209-3.41246-11.556535-9.506139-13.031837-6.824921-1.96707-13.8935889 2.212953-15.5998191 9.097697-.4874944 1.475303-.4874944 3.196489-.2437472 4.671791l-29.7371548 23.113069c-.7312415-.245884-1.2187358-.491768-1.9499773-.737651-6.8249208-1.96707-13.8935888 2.212953-15.599819 9.097697-1.7062301 6.884744 2.1937246 14.015372 9.0186454 15.736558 6.8249207 1.721186 13.8935887-2.212954 15.5998189-9.097698.2437471-1.229418.4874943-2.458837.2437471-3.934139l30.2246491-23.604837c.4874944.245884.7312416.491768 1.2187359.491768 2.924966.737651 5.849932.491767 8.531151-.737651l31.687132 21.637767c-.487494 6.147092 3.41246 12.048302 9.50614 13.523604 6.824921 1.96707 13.893588-2.212954 15.599819-9.097698.487494-1.721186.487494-3.442372.243747-5.163558l36.805823-27.538975c.243747 0 .487494.245883.731241.245883 6.824921 1.96707 13.893589-2.212953 15.599819-9.097697 2.193724-6.63886-1.949977-13.7694881-8.774898-15.7365579z" fill="#fff"/></g></svg>

<?xml version="1.0" encoding="UTF-8"?>
<svg width="257px" height="257px" viewBox="0 0 257 257" version="1.1" xmlns="http://www.w3.org/2000/svg" xmlns:xlink="http://www.w3.org/1999/xlink">
    <!-- Generator: Sketch 50.2 (55047) - http://www.bohemiancoding.com/sketch -->
    <title>datanyze/logo</title>
    <desc>Created with Sketch.</desc>
    <defs>
        <circle id="path-1" cx="125.5" cy="125.5" r="125.5"></circle>
    </defs>
    <g id="datanyze/logo" stroke="none" stroke-width="1" fill="none" fill-rule="evenodd">
        <g id="Group" transform="translate(3.000000, 3.000000)">
            <mask id="mask-2" fill="white">
                <use xlink:href="#path-1"></use>
            </mask>
            <use id="Mask" fill="#337AB7" xlink:href="#path-1"></use>
        </g>
        <path d="M207.635041,95.4872391 C200.81012,93.5201694 193.741452,97.7001926 192.035222,104.584937 C191.547728,106.306123 191.547728,108.273192 191.791475,109.994378 L155.229399,137.28747 C154.985652,137.28747 154.741905,137.041587 154.254411,137.041587 C151.573192,136.303936 148.648226,136.549819 146.210754,137.533354 L114.036127,115.649704 C114.279875,109.748495 110.623667,104.093169 104.529988,102.617867 C97.705067,100.650797 90.6363991,104.83082 88.9301689,111.715564 C88.4426745,113.190867 88.4426745,114.912053 88.6864217,116.387355 L58.9492669,139.500424 C58.2180254,139.25454 57.7305311,139.008656 56.9992896,138.762773 C50.1743688,136.795703 43.1057008,140.975726 41.3994706,147.86047 C39.6932405,154.745214 43.5931952,161.875842 50.418116,163.597028 C57.2430367,165.318214 64.3117047,161.384074 66.0179349,154.49933 C66.261682,153.269912 66.5054292,152.040493 66.261682,150.565191 L96.4863311,126.960354 C96.9738255,127.206238 97.2175727,127.452122 97.705067,127.452122 C100.630033,128.189773 103.554999,127.943889 106.236218,126.714471 L137.92335,148.352238 C137.435856,154.49933 141.33581,160.40054 147.42949,161.875842 C154.254411,163.842912 161.323078,159.662888 163.029309,152.778144 C163.516803,151.056958 163.516803,149.335772 163.273056,147.614586 L200.078879,120.075611 C200.322626,120.075611 200.566373,120.321494 200.81012,120.321494 C207.635041,122.288564 214.703709,118.108541 216.409939,111.223797 C218.603663,104.584937 214.459962,97.4543089 207.635041,95.4872391 Z" id="Path" fill="#FFFFFF"></path>
    </g>
</svg>
